!!!SOCIAL_FUNCTION:	dream songs
!!!PDT:	1913
!!!OTL: No_131_Dream_Song.krn
!!!REG: Great_Lakes
!!!LANG: Non-Tone
!!!LING_GROUP: Algonquin
**kern	**kern
*staff2	*staff1
*clefF4	*clefG2
*k[b-e-a-d-g-]	*k[b-e-a-d-g-]
*M2/4	*M2/4
4.r	16r
.	16f/LK
.	8.a-/
.	16a-/Jk
=1	=1
8GG-/L	4.a-/
8GG-/J	.
8GG-/L	.
8GG-/J	8f/
=2	=2
8GG-/L	16f/LK
.	8f/
8GG-/J	.
.	16e-/Jk
8GG-/L	4f/
8GG-/J	.
=3	=3
2r	16e-/LK
.	8e-/
.	16e-/Jk
.	8e-/L
.	8d-/J
=4||	=4||
*M3/4	*M3/4
2.r	16f/LK
.	8f/
.	16f/Jk
.	4.f/
.	8e-/
=5||	=5||
*M2/4	*M2/4
2r	16e-/LK
.	8e-/
.	16e-/Jk
.	4e-/
=6	=6
2r	16d-/LK
.	8d-/
.	16d-/Jk
.	8d-/L
.	8B-/J
*	*clefF4
=7||	=7||
*M3/4	*clefF4
*	*M3/4
2.r	16d-\LK
.	8d-\
.	16d-\Jk
.	[4d-\
.	16d-\LL]
.	16e-\
.	16d-\
.	16B-\JJ
=8||	=8||
*M2/4	*M2/4
2r	16B-\LK
.	8B-\
.	16B-\Jk
.	4B-\
=9||	=9||
*M3/4	*M3/4
2.r	8.A-\L
.	16A-\Jk
.	4.A-\
.	8A-\
=10	=10
2.r	2.A-\
==	==
*-	*-
